X:1
P: Cion a' Bhunta'ta
C: N. MacLean
C: arr. Terry Traub 4-15-02, via Barbara McOwen
R: Jig
M: 6/8
K: G
L: 1/8
|:e | "Am" Aee efg| "Am"edB "G"dBG| "Am"Aee efg|"Em"edB "Am"A2 e|\
  "Am"aaa "A7"ggg| "D"fff "Am"eAA|"Am"Aee "D"efg|"Em7"edB "Am"A2 :|
e| "Am"aeg a2 e|"Em"g2 f "Am"eAA|"Am"aeg a2 e|"G"gaf "E"e3|\
  "Am"eee "A7"AAA|"D"dff "Am"fee|"Am"Aee efg|"Em7"edB "Am"A2 e||
"Am"aeg a2 e|"Em"g2 f "Am"eAA|"Am"aeg a2 e|"G"gaf "E"efg|\
  "Am"aaa "A7"ggg|"D"fff "Am"eAA|"Am"Aee efg|"Em7"edB "Am"A2 |]
